X: 2
T: Terry 'Cuz' Teehan's
R: reel
M: 4/4
L: 1/8
K: Edor
B2 B>A B2 B>A | d>BA>F D>EF>A | B2 B>A B2 B>A | d>BA>F E2 E2 |B2 B>A B2 B>A | d>BA>F D>EF>A | E2 B>A B2 B>A | d>BA>F E2 E2 ||B>ee>f g>f e2 | d2 B>d A2 F>A | B>ee>f g>f e2 | d>BA>F E2 E2 |B>ee>f g>f e2 | d2 B>d A2 F>A | B>ee>d B>AF>A | D>EF>A E2 E2 |]|: B2 B>A B2 B>A | d>BA>F D>EF>A | |: B>ee>f g>f e2 | d2 B>d A2 F>A |


Tune 444	Setting 444

